icons/downcast.svg

<svg width="32" height="32" viewBox="0 0 32 32" fill="none" xmlns="http://www.w3.org/2000/svg">
<path fill-rule="evenodd" clip-rule="evenodd" d="M3.36627 28.6337C0.910867 26.1783 0 22.1783 0 16C0 9.82167 0.910867 5.82167 3.36627 3.36627C5.82167 0.910867 9.82167 0 16 0C22.1783 0 26.1783 0.910867 28.6337 3.36627C31.0891 5.82167 32 9.82167 32 16C32 22.1783 31.0891 26.1783 28.6337 28.6337C26.1783 31.0891 22.1783 32 16 32C9.82167 32 5.82167 31.0891 3.36627 28.6337Z" fill="#E10000"/>
<path fill-rule="evenodd" clip-rule="evenodd" d="M26.5143 16.2612C26.5143 17.3388 26.2857 18.6776 25.9265 20.0163C25.6653 20.9633 25.3061 21.8123 24.8816 22.6939C24.2286 24.0327 23.3469 25.2408 22.302 26.3184C22.2367 26.3837 22.1714 26.449 22.1061 26.5143C21.9429 26.6449 21.7796 26.6449 21.6163 26.4816C21.2571 26.1225 20.898 25.7633 20.5061 25.4041C20.3429 25.2408 20.1796 25.0776 20.0163 24.947C19.8204 24.7837 19.8204 24.5878 20.0163 24.4245C20.6041 23.8368 21.1265 23.1837 21.5837 22.4653C22.0408 21.747 22.4 20.9959 22.6939 20.2123C23.0204 19.298 23.2816 18.3837 23.3796 17.4368C23.6408 15.7388 23.5102 14.0408 22.9878 12.4082C22.4653 10.7429 21.6163 9.24083 20.4408 7.93471C20.3102 7.8041 20.1796 7.67349 20.0816 7.54287C20.0163 7.44491 19.951 7.34696 19.9837 7.249C20.0163 7.18369 20.049 7.11838 20.1143 7.05308C20.6041 6.59594 21.1265 6.04083 21.7143 5.51838C21.9102 5.35512 22.0735 5.35512 22.2694 5.51838C22.5959 5.84491 22.9224 6.2041 23.249 6.59594C24.8163 8.55512 25.7959 10.7755 26.2857 13.1919C26.449 14.1061 26.5143 15.0204 26.5143 16.2612Z" fill="white"/>
<path fill-rule="evenodd" clip-rule="evenodd" d="M20.2449 16C20.2449 17.4694 19.8857 18.9061 19.2327 20.2776C18.8082 21.1919 18.2204 22.0408 17.502 22.7592C17.4694 22.7919 17.4694 22.7919 17.4367 22.8245C17.2735 22.9878 17.1102 22.9878 16.9469 22.8245C16.3918 22.3021 15.8694 21.7796 15.3143 21.2245C15.1837 21.0939 15.151 20.9306 15.2816 20.7674C15.4775 20.5388 15.6735 20.3102 15.8694 20.0816C16.5878 19.0694 17.0122 17.9592 17.1755 16.751C17.3061 15.8041 17.2408 14.8898 16.9469 13.9755C16.6531 12.9306 16.098 12.0163 15.3469 11.2C15.151 11.0041 15.1837 10.8408 15.3469 10.6449C15.8694 10.1551 16.3918 9.63267 16.9143 9.14287C16.9469 9.11022 16.9796 9.07757 17.0122 9.07757C17.1755 8.97961 17.3061 8.97961 17.4367 9.11022C17.698 9.33879 17.9265 9.63267 18.1224 9.89389C19.0041 11.0041 19.5592 12.2776 19.9184 13.6163C20.1469 14.4 20.2449 15.1837 20.2449 16Z" fill="white"/>
<path d="M13.7469 15.6408C13.7143 15.0857 13.6163 14.5306 13.3878 14.0082C13.0286 13.0939 12.4082 12.3755 11.5592 11.8857C10.8408 11.4612 10.0245 11.298 9.20816 11.298C8.03265 11.298 7.31428 11.298 6.13877 11.298C5.94285 11.298 5.87755 11.3633 5.87755 11.5919C5.87755 13.0612 5.87755 14.5959 5.87755 16.0653C5.87755 17.5347 5.87755 19.2653 5.87755 20.7021C5.87755 20.8327 5.94285 20.898 6.10612 20.898C7.21632 20.898 7.80408 20.898 8.91428 20.898C9.43673 20.898 9.89388 20.8 10.351 20.7021C11.8204 20.3755 12.8653 19.5265 13.3878 18.1551C13.7143 17.3388 13.8122 16.4898 13.7469 15.6408ZM7.73877 16.0327C7.73877 15.2163 7.73877 14.1061 7.73877 13.2898C7.73877 13.0939 7.83673 13.0612 8.03265 13.0612C8.42449 13.0612 8.71836 13.0612 9.14285 13.0612C10.1878 13.0612 10.9061 13.8449 11.2 14.8245C11.4286 15.6408 11.4286 16.5878 11.1347 17.3714C10.9061 17.9265 10.5469 18.351 9.99183 18.5796C9.6653 18.7102 9.33877 18.7755 9.01224 18.7755C8.68571 18.7755 8.35918 18.7755 8.0653 18.7755C7.83673 18.7755 7.73877 18.7102 7.73877 18.5143V16.0327Z" fill="white"/>
</svg>

<svg xmlns="http://www.w3.org/2000/svg" width="32" height="32" fill="none" viewBox="0 0 32 32">
  <path fill="#E10000" fill-rule="evenodd" d="M3.366 28.634C.911 26.178 0 22.178 0 16S.91 5.822 3.366 3.366C5.822.911 9.822 0 16 0s10.178.91 12.634 3.366C31.089 5.822 32 9.822 32 16s-.91 10.178-3.366 12.634C26.178 31.089 22.178 32 16 32s-10.178-.91-12.634-3.366Z" clip-rule="evenodd"/>
  <path fill="#fff" fill-rule="evenodd" d="M26.514 16.261c0 1.078-.228 2.417-.587 3.755-.262.947-.62 1.796-1.045 2.678-.653 1.339-1.535 2.547-2.58 3.624l-.196.196c-.163.13-.326.13-.49-.032-.359-.36-.718-.719-1.11-1.078a6.241 6.241 0 0 0-.49-.457c-.196-.163-.196-.36 0-.523.588-.587 1.11-1.24 1.568-1.959.457-.718.816-1.47 1.11-2.253.326-.914.588-1.828.686-2.775.26-1.698.13-3.396-.392-5.029a11.993 11.993 0 0 0-2.547-4.473 3.92 3.92 0 0 1-.36-.392c-.065-.098-.13-.196-.097-.294a.682.682 0 0 1 .13-.196c.49-.457 1.012-1.012 1.6-1.535.196-.163.36-.163.555 0 .327.327.654.686.98 1.078 1.567 1.96 2.547 4.18 3.037 6.596.163.914.228 1.828.228 3.07Z" clip-rule="evenodd"/>
  <path fill="#fff" fill-rule="evenodd" d="M20.245 16c0 1.47-.36 2.906-1.012 4.278a8.708 8.708 0 0 1-1.73 2.481l-.066.066c-.164.163-.327.163-.49 0a76.223 76.223 0 0 1-1.633-1.6c-.13-.131-.163-.294-.032-.458l.587-.685a7.36 7.36 0 0 0 1.306-3.331 6.153 6.153 0 0 0-.228-2.776c-.294-1.044-.849-1.959-1.6-2.775-.196-.196-.163-.36 0-.555.522-.49 1.045-1.012 1.567-1.502.033-.033.066-.065.098-.065.163-.098.294-.098.425.032.261.229.49.523.685.784.882 1.11 1.437 2.384 1.796 3.722A8.4 8.4 0 0 1 20.245 16Z" clip-rule="evenodd"/>
  <path fill="#fff" d="M13.747 15.64c-.033-.554-.13-1.11-.36-1.632a4.158 4.158 0 0 0-1.828-2.122c-.718-.425-1.534-.588-2.35-.588h-3.07c-.196 0-.261.065-.261.294v9.11c0 .13.065.196.228.196h2.808c.523 0 .98-.098 1.437-.196 1.47-.327 2.514-1.176 3.037-2.547.326-.816.424-1.665.359-2.514Zm-6.008.393V13.29c0-.196.098-.229.294-.229h1.11c1.045 0 1.763.784 2.057 1.764.229.816.229 1.763-.065 2.546-.229.556-.588.98-1.143 1.209a2.62 2.62 0 0 1-.98.196h-.947c-.228 0-.326-.066-.326-.262v-2.481Z"/>
</svg>
